Catalina-light/actions/16/help-about-symbolic.svg

<?xml version="1.0" encoding="UTF-8" standalone="no"?>
<svg
   xmlns:dc="http://purl.org/dc/elements/1.1/"
   xmlns:cc="http://creativecommons.org/ns#"
   xmlns:rdf="http://www.w3.org/1999/02/22-rdf-syntax-ns#"
   xmlns:svg="http://www.w3.org/2000/svg"
   xmlns="http://www.w3.org/2000/svg"
   xmlns:sodipodi="http://sodipodi.sourceforge.net/DTD/sodipodi-0.dtd"
   xmlns:inkscape="http://www.inkscape.org/namespaces/inkscape"
   viewBox="0 0 16 16"
   id="svg2"
   version="1.1"
   inkscape:version="0.91 r13725"
   sodipodi:docname="help-about-symbolic.svg">
  <metadata
     id="metadata10">
    <rdf:RDF>
      <cc:Work
         rdf:about="">
        <dc:format>image/svg+xml</dc:format>
        <dc:type
           rdf:resource="http://purl.org/dc/dcmitype/StillImage" />
      </cc:Work>
    </rdf:RDF>
  </metadata>
  <sodipodi:namedview
     pagecolor="#ffffff"
     bordercolor="#666666"
     borderopacity="1"
     objecttolerance="10"
     gridtolerance="10"
     guidetolerance="10"
     inkscape:pageopacity="0"
     inkscape:pageshadow="2"
     inkscape:window-width="640"
     inkscape:window-height="480"
     id="namedview8"
     showgrid="false"
     inkscape:zoom="41.1875"
     inkscape:cx="3.6783005"
     inkscape:cy="8"
     inkscape:current-layer="svg2" />
  <defs
     id="defs3051">
    <style
       type="text/css"
       id="current-color-scheme">
      .ColorScheme-Text {
        color:#bebebe;
      }
      </style>
  </defs>
  <path
     style="color:#bebebe;fill:currentColor;fill-opacity:1;stroke:none"
     class="ColorScheme-Text"
     d="M 8,2 A 6,6 0 0 0 2,8 6,6 0 0 0 8,14 6,6 0 0 0 14,8 6,6 0 0 0 8,2 Z M 7.99498,4.625 c 0.573057,0 1.0389309,0.1645934 1.3978794,0.4938616 0.3589475,0.3231707 0.5390623,0.7377641 0.5390623,1.2438617 0,0.2195122 -0.06115,0.4423589 -0.1808031,0.6679686 C 9.6314645,7.2563015 9.5258219,7.4169473 9.4313616,7.514509 9.3431991,7.6059722 9.2167436,7.7264264 9.0530134,7.8727679 l -0.046875,0.045201 c -0.3841377,0.3353657 -0.577567,0.670772 -0.577567,1.0061383 l 0,0.3649548 -0.8872767,0 0,-0.4285709 c 0,-0.2743897 0.061153,-0.5096767 0.1808035,-0.7047991 C 7.8417479,7.9544729 8.0526389,7.7191859 8.3549107,7.4508929 8.5249387,7.2984539 8.643899,7.1858939 8.7131696,7.1127233 8.7887374,7.033455 8.8615328,6.9271151 8.9308036,6.7929688 9.006372,6.6527249 9.0446429,6.5090647 9.0446429,6.3627233 9.0446429,6.0822354 8.9489645,5.8571157 8.7600447,5.6863839 8.577422,5.5156522 8.3224389,5.4285714 7.9949777,5.4285714 c -0.5415713,0 -0.9134406,0.2935404 -1.1149554,0.8789063 L 6.0680804,5.9793527 C 6.2003244,5.6317917 6.4282779,5.3195911 6.7494419,5.0452009 7.0769033,4.7647131 7.4911907,4.625 7.9949777,4.625 Z m -0.010045,5.506138 c 0.1826226,0 0.3340333,0.0622 0.453683,0.184152 0.1259459,0.121951 0.1891741,0.26621 0.1891741,0.436943 0,0.17073 -0.063232,0.318338 -0.1891741,0.440289 C 8.3189933,11.314473 8.1675558,11.375 7.9849331,11.375 7.8023103,11.375 7.6488263,11.31447 7.5228795,11.192522 7.4032305,11.070571 7.34375,10.922963 7.34375,10.752233 c 0,-0.170733 0.059481,-0.314992 0.1791295,-0.436943 0.1259468,-0.121951 0.2794308,-0.184152 0.4620536,-0.184152 z"
     id="path6"
     inkscape:connector-curvature="0" />
</svg>

<svg version="1.1" viewBox="0 0 16 16" xmlns="http://www.w3.org/2000/svg">
<defs>
<style id="current-color-scheme" type="text/css">.ColorScheme-Text {
        color:#bebebe;
      }</style>
</defs>
<path class="ColorScheme-Text" d="m8 2a6 6 0 0 0-6 6 6 6 0 0 0 6 6 6 6 0 0 0 6-6 6 6 0 0 0-6-6zm-0.00502 2.625c0.57306 0 1.0389 0.16459 1.3979 0.49386 0.35895 0.32317 0.53906 0.73776 0.53906 1.2439 0 0.21951-0.06115 0.44236-0.1808 0.66797-0.11965 0.22561-0.2253 0.38626-0.31976 0.48382-0.088162 0.091463-0.21462 0.21192-0.37835 0.35826l-0.046875 0.045201c-0.38414 0.33537-0.57757 0.67077-0.57757 1.0061v0.36495h-0.88728v-0.42857c0-0.27439 0.061153-0.50968 0.1808-0.7048 0.11965-0.20122 0.33054-0.43651 0.63281-0.7048 0.17003-0.15244 0.28899-0.265 0.35826-0.33817 0.075568-0.079268 0.14836-0.18561 0.21763-0.31975 0.075568-0.14024 0.11384-0.2839 0.11384-0.43025 0-0.28049-0.095678-0.50561-0.2846-0.67634-0.18262-0.17073-0.43761-0.25781-0.76507-0.25781-0.54157 0-0.91344 0.29354-1.115 0.87891l-0.81194-0.32812c0.13224-0.34756 0.3602-0.65976 0.68136-0.93415 0.32746-0.28049 0.74175-0.4202 1.2455-0.4202zm-0.010045 5.5061c0.18262 0 0.33403 0.0622 0.45368 0.18415 0.12595 0.12195 0.18917 0.26621 0.18917 0.43694 0 0.17073-0.063232 0.31834-0.18917 0.44029-0.11962 0.12195-0.27106 0.18248-0.45368 0.18248-0.18262 0-0.33611-0.06053-0.46205-0.18248-0.11965-0.12195-0.17913-0.26956-0.17913-0.44029 0-0.17073 0.059481-0.31499 0.17913-0.43694 0.12595-0.12195 0.27943-0.18415 0.46205-0.18415z" color="#bebebe" fill="currentColor"/>
</svg>
